storage/app/icons/phosphoricons/regular/ranking.svg

<svg xmlns="http://www.w3.org/2000/svg" fill="currentColor" viewBox="0 0 256 256"><path d="M112.41 102.53a8 8 0 0 1 5.06-10.12l12-4A8 8 0 0 1 140 96v40a8 8 0 0 1-16 0v-28.9l-1.47.49a8 8 0 0 1-10.12-5.06M248 208a8 8 0 0 1-8 8H16a8 8 0 0 1 0-16h8v-96a16 16 0 0 1 16-16h40V56a16 16 0 0 1 16-16h64a16 16 0 0 1 16 16v72h40a16 16 0 0 1 16 16v56h8a8 8 0 0 1 8 8m-72-64v56h40v-56Zm-80 56h64V56H96Zm-56 0h40v-96H40Z"/></svg>

<svg xmlns="http://www.w3.org/2000/svg" viewBox="0 0 256 256" fill="currentColor"><path d="M112.41,102.53a8,8,0,0,1,5.06-10.12l12-4A8,8,0,0,1,140,96v40a8,8,0,0,1-16,0V107.1l-1.47.49A8,8,0,0,1,112.41,102.53ZM248,208a8,8,0,0,1-8,8H16a8,8,0,0,1,0-16h8V104A16,16,0,0,1,40,88H80V56A16,16,0,0,1,96,40h64a16,16,0,0,1,16,16v72h40a16,16,0,0,1,16,16v56h8A8,8,0,0,1,248,208Zm-72-64v56h40V144ZM96,200h64V56H96Zm-56,0H80V104H40Z"/></svg>
